X: 24
T: Miss Cathrine Abercromby's Delight
R: reel
B: William Shepherd "1st Collection" 1793 p.2 #4
F: http://imslp.org/wiki/File:PMLP73094-Shepherd_Collections_HMT.pdf
C: William Shepherd (17??-1812)
Z: 2012 John Chambers <jc:trillian.mit.edu>
M: 2/4
L: 1/16
K: D
FE |\
D3d FGAF | D2d2 d2A2 | Bcde gfed | c2e2 e2FE |\
D3d FGAF | D2d2 d2A2 | BcdB cdeg | f2d2 d2 :|
fg |\
a2d2 f2a2 | d2a2 bagf | g2B2 B2cd | efge dcBA |\
d2a2 fgaf | d2a2 bagf | g2B2 B2cd | fedc d2 ||
fg |\
a2d2 f2a2 | d2a2 bagf | g2B2 B2cd | efge dcBA |\
F2d2 G2e2 | A2f2 B2g2 | gfed cBAG | F2D2 D2 |]
